X: 100865
T: Josie McDermott's
S: "First Collection of Traditional Irish Music" (M.Mulvihill)
Z: B.Black
L: 1/8
M: 4/4
R: reel
K: G
A|BGEG DEGA|BGdG eGdG|BGEG DGBG|FGAF G3 A|
BG (3GFG EG (3GFG|DG (3GFG FGAc|BG (3FGF EG (3FGFG|\
FGAF G3 :|
F|G2 GB eg (3gfg|ea (3aga egdB|G2 GB eg (3gfg|\
egdB AGEF|
G2 GB eg (3gfg|ea (3aga eg (3gfg|bg (3gfg egdB|\
FGAF G3 :|
